app/component-library/components/Icons/Icon/assets/global.svg

<svg width="24" height="24" viewBox="0 0 24 24" fill="none" xmlns="http://www.w3.org/2000/svg">
<path d="M7.93082 20.9098C7.90082 20.9098 7.86082 20.9298 7.83082 20.9298C5.89082 19.9698 4.31082 18.3798 3.34082 16.4398C3.34082 16.4098 3.36082 16.3698 3.36082 16.3398C4.58082 16.6998 5.84082 16.9698 7.09082 17.1798C7.31082 18.4398 7.57082 19.6898 7.93082 20.9098Z" fill="currentColor"/>
<path d="M21.2208 16.4498C20.2308 18.4398 18.5808 20.0498 16.5708 21.0198C16.9508 19.7498 17.2708 18.4698 17.4808 17.1798C18.7408 16.9698 19.9808 16.6998 21.2008 16.3398C21.1908 16.3798 21.2208 16.4198 21.2208 16.4498Z" fill="currentColor"/>
<path d="M21.3008 7.71C20.0408 7.33 18.7708 7.02 17.4808 6.8C17.2708 5.51 16.9608 4.23 16.5708 2.98C18.6408 3.97 20.3108 5.64 21.3008 7.71Z" fill="currentColor"/>
<path d="M7.93076 3.09C7.57076 4.31 7.31076 5.55 7.10076 6.81C5.81076 7.01 4.53076 7.33 3.26076 7.71C4.23076 5.7 5.84076 4.05 7.83076 3.06C7.86076 3.06 7.90076 3.09 7.93076 3.09Z" fill="currentColor"/>
<path d="M15.7708 6.59C13.4508 6.33 11.1108 6.33 8.79076 6.59C9.04076 5.22 9.36076 3.85 9.81076 2.53C9.83076 2.45 9.82076 2.39 9.83076 2.31C10.6208 2.12 11.4308 2 12.2808 2C13.1208 2 13.9408 2.12 14.7208 2.31C14.7308 2.39 14.7308 2.45 14.7508 2.53C15.2008 3.86 15.5208 5.22 15.7708 6.59Z" fill="currentColor"/>
<path d="M6.87076 15.4898C5.49076 15.2398 4.13076 14.9198 2.81076 14.4698C2.73076 14.4498 2.67076 14.4598 2.59076 14.4498C2.40076 13.6598 2.28076 12.8498 2.28076 11.9998C2.28076 11.1598 2.40076 10.3398 2.59076 9.55977C2.67076 9.54977 2.73076 9.54977 2.81076 9.52977C4.14076 9.08977 5.49076 8.75977 6.87076 8.50977C6.62076 10.8298 6.62076 13.1698 6.87076 15.4898Z" fill="currentColor"/>
<path d="M22.2809 11.9998C22.2809 12.8498 22.1609 13.6598 21.9709 14.4498C21.8909 14.4598 21.8309 14.4498 21.7509 14.4698C20.4209 14.9098 19.0609 15.2398 17.6909 15.4898C17.9509 13.1698 17.9509 10.8298 17.6909 8.50977C19.0609 8.75977 20.4309 9.07977 21.7509 9.52977C21.8309 9.54977 21.8909 9.55977 21.9709 9.55977C22.1609 10.3498 22.2809 11.1598 22.2809 11.9998Z" fill="currentColor"/>
<path d="M15.7705 17.4102C15.5205 18.7902 15.2005 20.1502 14.7505 21.4702C14.7305 21.5502 14.7305 21.6102 14.7205 21.6902C13.9405 21.8802 13.1205 22.0002 12.2805 22.0002C11.4305 22.0002 10.6205 21.8802 9.83053 21.6902C9.82053 21.6102 9.83053 21.5502 9.81053 21.4702C9.37053 20.1402 9.04053 18.7902 8.79053 17.4102C9.95053 17.5402 11.1105 17.6302 12.2805 17.6302C13.4505 17.6302 14.6205 17.5402 15.7705 17.4102Z" fill="currentColor"/>
<path d="M16.0441 15.7633C13.543 16.0789 11.0185 16.0789 8.51743 15.7633C8.20187 13.2622 8.20187 10.7378 8.51743 8.23667C11.0185 7.92111 13.543 7.92111 16.0441 8.23667C16.3597 10.7378 16.3597 13.2622 16.0441 15.7633Z" fill="currentColor"/>
</svg>

<svg xmlns="http://www.w3.org/2000/svg" width="24" height="24" viewBox="0 0 24 24" fill="none"><path d="M7.93 20.91c-.03 0-.07.02-.1.02-1.94-.96-3.52-2.55-4.49-4.49 0-.03.02-.07.02-.1 1.22.36 2.48.63 3.73.84.22 1.26.48 2.51.84 3.73zM21.22 16.45c-.99 1.99-2.64 3.6-4.65 4.57.38-1.27.7-2.55.91-3.84 1.26-.21 2.5-.48 3.72-.84-.01.04.02.08.02.11zM21.3 7.71c-1.26-.38-2.53-.69-3.82-.91-.21-1.29-.52-2.57-.91-3.82 2.07.99 3.74 2.66 4.73 4.73zM7.93 3.09c-.36 1.22-.62 2.46-.83 3.72-1.29.2-2.57.52-3.84.9.97-2.01 2.58-3.66 4.57-4.65.03 0 .07.03.1.03zM15.77 6.59c-2.32-.26-4.66-.26-6.98 0 .25-1.37.57-2.74 1.02-4.06.02-.08.01-.14.02-.22.79-.19 1.6-.31 2.45-.31.84 0 1.66.12 2.44.31.01.08.01.14.03.22.45 1.33.77 2.69 1.02 4.06zM6.87 15.49c-1.38-.25-2.74-.57-4.06-1.02-.08-.02-.14-.01-.22-.02-.19-.79-.31-1.6-.31-2.45 0-.84.12-1.66.31-2.44.08-.01.14-.01.22-.03 1.33-.44 2.68-.77 4.06-1.02-.25 2.32-.25 4.66 0 6.98zM22.28 12c0 .85-.12 1.66-.31 2.45-.08.01-.14 0-.22.02-1.33.44-2.69.77-4.06 1.02.26-2.32.26-4.66 0-6.98 1.37.25 2.74.57 4.06 1.02.08.02.14.03.22.03.19.79.31 1.6.31 2.44zM15.77 17.41c-.25 1.38-.57 2.74-1.02 4.06-.02.08-.02.14-.03.22-.78.19-1.6.31-2.44.31-.85 0-1.66-.12-2.45-.31-.01-.08 0-.14-.02-.22a29.77 29.77 0 0 1-1.02-4.06c1.16.13 2.32.22 3.49.22 1.17 0 2.34-.09 3.49-.22zM16.044 15.763a30.035 30.035 0 0 1-7.527 0 30.039 30.039 0 0 1 0-7.526 30.04 30.04 0 0 1 7.527 0 30.035 30.035 0 0 1 0 7.526z" fill="currentColor"/></svg>
